X: 23121
T: Laurel's
R: reel
M: 4/4
K: Amajor
|:ED|C3 D EFAB|cfec BAFA|BF F2 dcBA|GBAF EDCB,|
C3 D EFAB|cfec BAFA|BF F/F/F dcBA|EAGB A2:|
|:cd|e2 ef edcd|eaab aece|fB B2 dcBA|
[1 GBAF E2 cd|e3 e edcd|ea a/a/a aece|fB B/B/B dcBA|EAGB A2:|
[2 GBAF EDCB,|C3 D EFAB|cfec BAFA|BF F/F/F dcBA|EAGB A2||

